icons/twitch.svg

<svg width="24" height="24" viewBox="0 0 24 24" fill="none" xmlns="http://www.w3.org/2000/svg">
<path fill-rule="evenodd" clip-rule="evenodd" d="M3.58479 3.58579C3.95986 3.21071 4.46857 3 4.999 3H18.999C19.5294 3 20.0381 3.21072 20.4132 3.58579C20.7883 3.96086 20.999 4.46956 20.999 5V13.585C20.999 14.1179 20.7865 14.6247 20.415 14.9982L20.413 15.0003L18 17.4122C17.9996 17.4126 17.9992 17.413 17.9989 17.4134C17.6229 17.7907 17.1136 18 16.584 18H11.4142L7.70711 21.7071C7.42111 21.9931 6.99099 22.0787 6.61732 21.9239C6.24364 21.7691 6 21.4045 6 21V18H5C4.46957 18 3.96086 17.7893 3.58579 17.4142C3.21071 17.0391 3 16.5304 3 16V5C3 4.47214 3.2079 3.96267 3.58479 3.58579ZM5 5V16H7C7.55228 16 8 16.4477 8 17V18.5858L10.2929 16.2929C10.4804 16.1054 10.7348 16 11 16H16.5838L16.584 15.9997L18.997 13.5878C18.9971 13.5877 18.9971 13.5876 18.9972 13.5876C18.9978 13.587 18.9982 13.5865 18.9984 13.586C18.9987 13.5856 18.9988 13.5853 18.9989 13.5851C18.999 13.585 18.999 13.585 18.999 13.5849V5H5ZM12 7C12.5523 7 13 7.44772 13 8V12C13 12.5523 12.5523 13 12 13C11.4477 13 11 12.5523 11 12V8C11 7.44772 11.4477 7 12 7ZM16 7C16.5523 7 17 7.44772 17 8V12C17 12.5523 16.5523 13 16 13C15.4477 13 15 12.5523 15 12V8C15 7.44772 15.4477 7 16 7Z" fill="black"/>
</svg>

<svg
  width="24"
  height="24"
  viewBox="0 0 24 24"
  xmlns="http://www.w3.org/2000/svg"
>
  <path
    fill-rule="evenodd"
    clip-rule="evenodd"
    d="M3.585 3.586A2 2 0 0 1 4.999 3h14a2 2 0 0 1 2 2v8.585c0 .533-.212 1.04-.584 1.413l-.002.002L18 17.412l-.001.001a1.996 1.996 0 0 1-1.415.587h-5.17l-3.707 3.707A1 1 0 0 1 6 21v-3H5a2 2 0 0 1-2-2V5c0-.528.208-1.037.585-1.414zM5 5v11h2a1 1 0 0 1 1 1v1.586l2.293-2.293A1 1 0 0 1 11 16h5.584l2.413-2.412.001-.002.001-.001V5H5zm7 2a1 1 0 0 1 1 1v4a1 1 0 1 1-2 0V8a1 1 0 0 1 1-1zm4 0a1 1 0 0 1 1 1v4a1 1 0 1 1-2 0V8a1 1 0 0 1 1-1z"
  />
</svg>
